public/icon-promotion.svg

<svg width="48" height="48" viewBox="0 0 48 48" fill="none" xmlns="http://www.w3.org/2000/svg">
<path d="M18.0722 30.1483L12.3968 20.8006C11.5523 19.4097 11.6346 17.6457 12.605 16.3394L20.5344 5.66517C22.2063 3.41453 25.6148 3.53761 27.1201 5.90296L38.3062 23.4812C39.8313 25.8778 38.442 29.056 35.6471 29.5642L22.2069 32.0078C20.5765 32.3043 18.9322 31.5647 18.0722 30.1483Z" fill="#FFE493"/>
<path d="M12.8405 30.2095C13.2887 29.9509 13.4421 29.3771 13.1836 28.9288C12.9247 28.481 12.3512 28.3272 11.903 28.5857C11.4547 28.8446 11.3009 29.4185 11.5598 29.8664C11.8184 30.3146 12.3922 30.4684 12.8405 30.2095Z" fill="black"/>
<path d="M8.99855 36.6801L13.7197 44.8579C14.7385 46.6245 17.0303 47.2786 18.8427 46.2308C20.636 45.1945 21.2523 42.9031 20.2149 41.1083L17.4024 36.2362L19.838 34.83C20.2863 34.5707 20.4401 33.9976 20.1812 33.5493L18.9621 31.4377C19.1074 31.4095 20.0632 31.222 36.9188 27.9155C39.0026 27.8024 40.251 25.5234 39.1985 23.7015L36.0828 18.3051L38.0739 15.2893C38.2694 14.9927 38.2811 14.6115 38.1035 14.3038L36.2285 11.0563C36.0509 10.7487 35.7136 10.5685 35.3602 10.5894L31.7534 10.8058L28.2946 4.81458C27.7936 3.94666 26.896 3.42114 25.8941 3.40869C25.882 3.40833 25.8703 3.40833 25.8582 3.40833C24.8899 3.40833 24.011 3.89026 23.4903 4.70508L11.2434 20.3064L3.28163 24.9031C0.150162 26.7103 -0.934555 30.7277 0.879654 33.8676C2.53713 36.7386 6.03151 37.868 8.99855 36.6801ZM18.5914 42.0461C19.1093 42.9419 18.8028 44.0881 17.9044 44.6071C17.0032 45.1282 15.8555 44.8081 15.3435 43.9208L10.656 35.8008L13.9036 33.9258C19.3286 43.3235 18.5043 41.8956 18.5914 42.0461ZM16.4649 34.6121L15.5274 32.9883L17.1511 32.0508L18.0886 33.6746L16.4649 34.6121ZM34.8944 12.4955L36.1901 14.7396L35.0347 16.4894L32.8015 12.6211L34.8944 12.4955ZM25.0584 5.73303C25.31 5.32141 25.7091 5.27893 25.871 5.28333C26.031 5.28516 26.4298 5.33496 26.6704 5.75171L37.5747 24.639C37.93 25.2539 37.4982 26.027 36.7859 26.0446C36.6581 26.0475 36.5991 26.0706 36.2717 26.1317L24.7372 6.15308C24.9793 5.8418 25.0104 5.81177 25.0584 5.73303ZM23.4895 7.74243L34.3268 26.5133L17.9711 29.7213L12.9979 21.1077L23.4895 7.74243ZM2.50343 32.9301C2.09181 32.2178 1.87428 31.4092 1.87428 30.5911C1.87428 28.9189 2.77296 27.3618 4.21913 26.5269L11.5261 22.3081L16.2136 30.427L8.90663 34.6461C6.66798 35.9381 3.79579 35.1683 2.50343 32.9301Z" fill="black"/>
<path d="M9.93604 30.8038C9.67713 30.3556 9.10364 30.2018 8.6554 30.4607L7.03162 31.3982C6.58411 31.6567 6.00953 31.5026 5.75098 31.0551C5.49207 30.6068 4.91858 30.453 4.47034 30.7119C4.0221 30.9708 3.86829 31.5443 4.1272 31.9926C4.89881 33.3292 6.62 33.8006 7.96912 33.022L9.5929 32.0845C10.0411 31.8256 10.195 31.2525 9.93604 30.8038Z" fill="black"/>
<path d="M46.6065 5.41365L41.3825 8.32063C40.9303 8.57259 40.7673 9.14351 41.0193 9.59578C41.2705 10.0477 41.841 10.2114 42.2944 9.95906L47.518 7.05208C47.9707 6.80012 48.1333 6.2292 47.8813 5.77693C47.6297 5.32429 47.0588 5.1617 46.6065 5.41365Z" fill="black"/>
<path d="M46.0587 15.1235L42.4365 14.153C41.9363 14.019 41.4221 14.3156 41.2881 14.8159C41.154 15.3161 41.451 15.8299 41.9513 15.964L45.5738 16.9344C46.077 17.0696 46.5886 16.7682 46.7219 16.2716C46.8559 15.7713 46.5589 15.2572 46.0587 15.1235Z" fill="black"/>
<path d="M36.9562 2.00766L35.9846 5.63022C35.8506 6.13046 36.1472 6.64426 36.6475 6.77866C37.1473 6.91232 37.6615 6.61642 37.7959 6.11581L38.7671 2.49326C38.9011 1.99301 38.6045 1.47885 38.1042 1.34482C37.6044 1.21079 37.0902 1.50742 36.9562 2.00766Z" fill="black"/>
</svg>

<svg width="48" height="48" fill="none" xmlns="http://www.w3.org/2000/svg"><path d="M18.072 30.148l-5.675-9.347a4 4 0 01.208-4.462l7.93-10.674c1.671-2.25 5.08-2.127 6.585.238l11.186 17.578c1.525 2.397.136 5.575-2.659 6.083l-13.44 2.444a4 4 0 01-4.135-1.86z" fill="#FFE493"/><path d="M12.84 30.21a.938.938 0 10-.938-1.625.938.938 0 00.939 1.624z" fill="#000"/><path d="M8.999 36.68l4.72 8.178c1.02 1.767 3.311 2.42 5.124 1.373a3.748 3.748 0 001.372-5.123l-2.813-4.872 2.436-1.406a.938.938 0 00.343-1.28l-1.219-2.112 17.957-3.522c2.084-.114 3.332-2.393 2.28-4.215l-3.116-5.396 1.99-3.016a.938.938 0 00.03-.985l-1.875-3.248a.94.94 0 00-.868-.467l-3.607.217-3.458-5.991a2.788 2.788 0 00-2.4-1.406h-.037c-.968 0-1.847.481-2.368 1.296L11.243 20.306l-7.961 4.597A6.566 6.566 0 00.88 33.868c1.657 2.87 5.152 4 8.119 2.812zm9.592 5.366a1.874 1.874 0 11-3.248 1.875l-4.687-8.12 3.248-1.875 4.687 8.12zm-2.126-7.434l-.938-1.624 1.624-.937.938 1.624-1.624.937zm18.43-22.117l1.295 2.245-1.155 1.75-2.233-3.869 2.092-.126zm-9.837-6.762a.917.917 0 01.813-.45c.16.002.559.052.8.469l10.904 18.887a.937.937 0 01-.79 1.406c-.127.002-.186.026-.513.087L24.737 6.153c.242-.311.273-.341.321-.42zm-1.569 2.01l10.838 18.77-16.356 3.208-4.973-8.613L23.49 7.742zM2.503 32.93a4.681 4.681 0 011.716-6.403l7.307-4.219 4.688 8.119-7.307 4.22a4.693 4.693 0 01-6.404-1.717z" fill="#000"/><path d="M9.936 30.804a.938.938 0 00-1.28-.343l-1.624.937a.939.939 0 01-1.281-.343.938.938 0 00-1.624.938 2.816 2.816 0 003.842 1.029l1.624-.938a.938.938 0 00.343-1.28zM46.606 5.414L41.382 8.32a.938.938 0 00.912 1.638l5.224-2.907a.937.937 0 10-.912-1.638zM46.059 15.123l-3.622-.97a.938.938 0 10-.486 1.811l3.623.97a.937.937 0 10.485-1.81zM36.956 2.008l-.971 3.622a.938.938 0 001.81.486l.972-3.623a.938.938 0 00-1.81-.485z" fill="#000"/></svg>
